svgs/duotone/square-poll-vertical.svg

<svg xmlns="http://www.w3.org/2000/svg" viewBox="0 0 448 512"><!--! Font Awesome Pro 6.5.1 by @fontawesome - https://fontawesome.com License - https://fontawesome.com/license (Commercial License) Copyright 2023 Fonticons, Inc. --><defs><style>.fa-secondary{opacity:.4}</style></defs><path class="fa-secondary" d="M64 32C28.7 32 0 60.7 0 96V416c0 35.3 28.7 64 64 64H384c35.3 0 64-28.7 64-64V96c0-35.3-28.7-64-64-64H64zm64 192c17.7 0 32 14.3 32 32v96c0 17.7-14.3 32-32 32s-32-14.3-32-32V256c0-17.7 14.3-32 32-32zm64-64c0-17.7 14.3-32 32-32s32 14.3 32 32V352c0 17.7-14.3 32-32 32s-32-14.3-32-32V160zM320 288c17.7 0 32 14.3 32 32v32c0 17.7-14.3 32-32 32s-32-14.3-32-32V320c0-17.7 14.3-32 32-32z"/><path class="fa-primary" d="M192 160c0-17.7 14.3-32 32-32s32 14.3 32 32V352c0 17.7-14.3 32-32 32s-32-14.3-32-32V160zM96 256c0-17.7 14.3-32 32-32s32 14.3 32 32v96c0 17.7-14.3 32-32 32s-32-14.3-32-32V256zm224 32c17.7 0 32 14.3 32 32v32c0 17.7-14.3 32-32 32s-32-14.3-32-32V320c0-17.7 14.3-32 32-32z"/></svg>

<svg xmlns="http://www.w3.org/2000/svg" viewBox="0 0 448 512"><!--! Font Awesome Pro 6.1.1 by @fontawesome - https://fontawesome.com License - https://fontawesome.com/license (Commercial License) Copyright 2022 Fonticons, Inc. --><defs><style>.fa-secondary{opacity:.4}</style></defs><path class="fa-primary" d="M192 160C192 142.3 206.3 128 224 128C241.7 128 256 142.3 256 160V352C256 369.7 241.7 384 224 384C206.3 384 192 369.7 192 352V160zM96 256C96 238.3 110.3 224 128 224C145.7 224 160 238.3 160 256V352C160 369.7 145.7 384 128 384C110.3 384 96 369.7 96 352V256zM352 320V352C352 369.7 337.7 384 320 384C302.3 384 288 369.7 288 352V320C288 302.3 302.3 288 320 288C337.7 288 352 302.3 352 320z"/><path class="fa-secondary" d="M384 32C419.3 32 448 60.65 448 96V416C448 451.3 419.3 480 384 480H64C28.65 480 0 451.3 0 416V96C0 60.65 28.65 32 64 32H384zM128 224C110.3 224 96 238.3 96 256V352C96 369.7 110.3 384 128 384C145.7 384 160 369.7 160 352V256C160 238.3 145.7 224 128 224zM192 352C192 369.7 206.3 384 224 384C241.7 384 256 369.7 256 352V160C256 142.3 241.7 128 224 128C206.3 128 192 142.3 192 160V352zM320 288C302.3 288 288 302.3 288 320V352C288 369.7 302.3 384 320 384C337.7 384 352 369.7 352 352V320C352 302.3 337.7 288 320 288z"/></svg>
